X: 37865
T: Sound As A Trout
R: jig
M: 6/8
K: Gmajor
|:g2d BAG|BdB BAB|GAB BAB|GAB def|
g2d BAG|BdB BAB|GAB AGF|1 G3G2 f:|2 G4 cB||
|:A2F D2F|A2B cBA|B2G GAB|c2B AdB|
A2F D2F|A2B cBA|BdB AGF|1 G4 cB:|2 G3G2f||

